X:10
T: IS DENN MEI VATER A LEIERSMANN
N: E1007
O: Europa, Mitteleuropa, Deutschland, Schwaben
R: Tanz - Lied
M: 3/8
L: 1/16
K: G
 | B2BcB2 | A2B2c2 | d2ded2
B2BcB2 | A2B2c2 | d4z2
B2BcB2 | A2B2c2 | d2ded2
B2BcB2 | A2B2c2 | d4z2
B2dBG2 | A2cAF2 | G2B2D2
B2dBG2 | A2cAF2 | G4z2
B2dBG2 | A2cAF2 | G2B2D2
B2dBG2 | A2cAF2 | G4z2

